X: 10542
M: C|
L: 1/8
K: F	% and Dm
f |\
{d}c>BAG F<GA2 | c>FA>F c>FAf |\
{d}c>(B{B}A)>G F>GAF | Ddd>c d2d :|\
f |\
~c>d~f>g {fg}afga | fc (d/c/B/A/) fccf/g/ |\
a>fg>d Tf>cd<f | AdTd>c d2d |]


